X: 1
T: No_10_An_Appeal_to_the_Deer.krn
N: Derived from No_10_An_Appeal_to_the_Deer.krn
%%abc-version 2.0
%%abcx-abcm2ps-target-version 5.9.1 (29 Sep 2008)
%%abc-creator hum2abc beta
%%abcx-conversion-date 2019/03/15 08:26:49
%%humdrum-veritas 138951806
%%humdrum-veritas-data 3244772136
%%linebreak <none>
%%barnumbers 0
L: 1/8
M: 3/4
K: B clef=bass
[K:clef=bass][M:3/4]z4z G, | 
G,G, G,G, G,/ z3/ ||  
[M:2/4]B,A,/G,/ G,G, | 
G,G, G,/ z3/ | 
B,A,/G,/ G,G,/G,/ | 
G,G, G,/ z3/ | 
B,G, G,G, | 
G,G, G,/ z3/ | 
G,G, G,G,/G,/ | 
G,G, G,/ z3/ | 
B,B,/G,/ G,/G,/G, | 
G,G, G,/ z3/ | 
B,G, G,G, | 
G,G, G,/ z3/ | 
B,G,/G,/ G,G,/G,/ | 
G,G, G,/ z3/ | 
z4 | 
G,G, G,G, | 
G,G, G,/ z3/ | 
A,G, G,G, | 
G,/G,/G, G,/ z3/ | 
A,G, A,/A,/G, | 
G,G, G,/ z3/ | 
A,G,/G,/ A,/A,/G, | 
G,G, G,/ z3/ | 
A,G,/G,/ A,/A,/G, | 
G,G, G,/ z3/ | 
A,G,/G,/ G,G,/E,/ | 
G,G, G,/ z3/ | 
A,G, A,/A,/G, | 
G,G, G,/ z3/ | 
A,G, G,G, | 
G,G, G, z | 
A,G, G,G, | 
G,G, G, z |]  



